docs/.gitbook/assets/icon-compass-16@light.svg

<svg width="32" height="32" viewBox="0 0 16 16" fill="none" xmlns="http://www.w3.org/2000/svg">
<rect x="0" y="0" width="16" height="16" fill="#fff"/>
<path fill-rule="evenodd" clip-rule="evenodd" d="M8 2.5C4.96243 2.5 2.5 4.96243 2.5 8C2.5 11.0376 4.96243 13.5 8 13.5C11.0376 13.5 13.5 11.0376 13.5 8C13.5 4.96243 11.0376 2.5 8 2.5ZM1 8C1 4.13401 4.13401 1 8 1C11.866 1 15 4.13401 15 8C15 11.866 11.866 15 8 15C4.13401 15 1 11.866 1 8ZM10.7803 5.21967C10.9729 5.41227 11.046 5.69415 10.9711 5.95604L9.97114 9.45604C9.89995 9.7052 9.7052 9.89996 9.45604 9.97114L5.95604 10.9711C5.69415 11.046 5.41227 10.9729 5.21967 10.7803C5.02707 10.5877 4.95403 10.3059 5.02886 10.044L6.02886 6.54396C6.10004 6.2948 6.2948 6.10005 6.54396 6.02886L10.044 5.02886C10.3059 4.95403 10.5877 5.02707 10.7803 5.21967ZM7.35667 7.35668L6.84202 9.15798L8.64332 8.64332L9.15798 6.84202L7.35667 7.35668Z" fill="#000"/>
</svg>

<svg xmlns="http://www.w3.org/2000/svg" width="32" height="32" fill="none" viewBox="0 0 16 16"><path fill="#fff" d="M0 0h16v16H0z"/><path fill="#000" fill-rule="evenodd" d="M8 2.5a5.5 5.5 0 1 0 0 11 5.5 5.5 0 0 0 0-11M1 8a7 7 0 1 1 14 0A7 7 0 0 1 1 8m9.78-2.78a.75.75 0 0 1 .191.736l-1 3.5a.75.75 0 0 1-.515.515l-3.5 1a.75.75 0 0 1-.927-.927l1-3.5a.75.75 0 0 1 .515-.515l3.5-1a.75.75 0 0 1 .736.19M7.357 7.357l-.515 1.801 1.801-.515.515-1.801z" clip-rule="evenodd"/></svg>
